images/email_hover.svg

<svg enable-background="new 0 0 485.411 485.411" fill="#77d8fe" viewBox="0 0 485.411 485.411" xmlns="http://www.w3.org/2000/svg"><path d="m0 81.824v321.763h485.411v-321.763zm242.708 198.702-199.096-174.835h398.187zm-79.311-37.877-139.53 122.529v-245.059zm18.085 15.884 61.22 53.762 61.22-53.762 138.002 121.187h-398.437zm140.526-15.878 139.535-122.536v245.059z"/></svg>

<?xml version="1.0" encoding="iso-8859-1"?>
<!-- Generator: Adobe Illustrator 18.1.1, SVG Export Plug-In . SVG Version: 6.00 Build 0)  -->
<svg version="1.1" id="Capa_1" fill='#77d8fe' xmlns="http://www.w3.org/2000/svg" xmlns:xlink="http://www.w3.org/1999/xlink" x="0px" y="0px"
	 viewBox="0 0 485.411 485.411" style="enable-background:new 0 0 485.411 485.411;" xml:space="preserve">
<g>
	<path d="M0,81.824v321.763h485.411V81.824H0z M242.708,280.526L43.612,105.691h398.187L242.708,280.526z
		 M163.397,242.649L23.867,365.178V120.119L163.397,242.649z M181.482,258.533l61.22,53.762l61.22-53.762L441.924,379.72H43.487
		L181.482,258.533z M322.008,242.655l139.535-122.536v245.059L322.008,242.655z"/>
</g>
<g>
</g>
<g>
</g>
<g>
</g>
<g>
</g>
<g>
</g>
<g>
</g>
<g>
</g>
<g>
</g>
<g>
</g>
<g>
</g>
<g>
</g>
<g>
</g>
<g>
</g>
<g>
</g>
<g>
</g>
</svg>
